X:3388
T:Cook in the Kitchen
R:Jig
M:6/8
L:1/8
K:G
DGG GAG|FDE =F3|DGG GFG|Add cAG|
DGG GAG|FDE =F2d|cAG FGA|BGG G2:|
A|~B3 BAG|ABA AGF|~G3 FGG|Add cAG|
~B3 BAG|ABA ABc|dcA AGF|AGF G2:|
B|d2e f2g|a2g fed|cAG FGA|BGB AFD|
d2e f2g|a2g fed|cAG FGA|BGG G2:|


